X:1
T:Blessèd News
T:Bentley DeForest Ackley, 1920
T:Blessèd News
T:Public Domain
T:Public Domain
C:Bentley DeForest Ackley, 1920
Z:Public Domain
%%score ( 1 2 ) ( 3 4 )
L:1/8
M:6/8
K:Eb
V:1 treble 
V:2 treble 
V:3 bass 
V:4 bass 
V:1
 [GB]2 [GB] [GB]2 G | [GB]2 [GB] [GB]3 | [GB]2 [GB] [Gc]2 G | [AB]2 [AB] [AB]3 | %4
w: 1.~Bless- èd news from|a- bove, Send|it forth on wings|love, O’er the|
w: 2.~Bless- èd news, O|it roll, Quick-|ly on to ev’-|soul, O- ver|
w: 3.~Bless- èd news for|that stray, On|the mount- ain far|way, Lo, the|
w: 4.~Bless- èd news for|op- pressed, Come|to Je- sus, come|rest; Turn to|
 [Ge]2 [Ge] [Gd]2 [Gd] | [Ac]2 [Ec] [EB]3 | [DA]2 [DA] [EG]2 [EG] | F2 [EF] [DB]3 || %8
w: might- y o- cean|wave, Je- sus|died, the lost to|save. * *|
w: land and o- ver|sea, To the|world re- demp- tion|free. Who- so-|
w: ten- der Shep- herd’s|voice, Bids them|now in Him re-|joice. * *|
w: Him and He’ll for-|give, To the|Cross, O look and|live. * *|
"^Refrain" [EB]2 [EB] [E=A]2 [EB] | [Ec]2 [EB] [EG]3 | [EG]2 [EG] [E^F]2 [EG] | [EA]2 [EG] E3 | %12
w: ||||
w: er will be- lieve,|Shall e- ter-|nal life re- ceive;|Sound the Gos-|
w: ||||
w: ||||
 B2 B, D2 F | (D2 A [AB]3) | [AB]2 [AB] [Ac]2 [DB] | (E2 E [EG]3) | [GB]2 [GB] [^F=A]2 [GB] | %17
w: |||||
w: call, There is room|ev- * *|will be- lieve, Shall|e- * *|* nal life re-|
w: |||||
w: |||||
 [Ac]2 [GB] [EG]3 | [EG]2 [EG] [E^F]2 [EG] | [EA]2 [EG] E3 | B2 B, D2 F | (D2 A [AB]3) | %22
w: |||||
w: ceive; Sound the|Gos- pel call: There|is room for|||
w: |||||
w: |||||
 [AB]2 [AB] [Ac]2 [AB] | (G2 A [Ge]3) |] %24
w: ||
w: ||
w: ||
w: ||
V:2
 x5 G | x6 | x5 G | x6 | x6 | x6 | x6 | F2 x4 || x6 | x6 | x6 | x3 E3 | B2 B, D2 F | B3- x3 | x6 | %15
w: Heav’n||of|||||||||||||
w: let||ry|||||ev-||||pel|for all. Who- so-|er||
w: those||a-|||||||||||||
w: souls||and|||||||||||||
 G3- x3 | x6 | x6 | x6 | x3 E3 | B2 B, D2 F | B3- x3 | x6 | e3- x3 |] %24
w: |||||||||
w: ter-||||all.|||||
w: |||||||||
w: |||||||||
V:3
 [E,E]2 [E,E] [E,B,]2 [E,B,] | [E,E]2 [E,B,] [E,E]3 | [E,B,]2 [E,B,] [E,E]2 [E,B,] | %3
w: ~ ~ ~ ~|~ ~ ~|~ ~ ~ ~|
 [F,D]2 [F,D] [B,D]3 | C2 C [B,D]2 [B,D] | [A,E]2 [A,E] [G,E]3 | [F,B,]2 [F,B,] [E,B,]2 [E,B,] | %7
w: ~ ~ ~|~ ~ ~ ~|~ ~ ~|~ ~ ~ ~|
 [D,B,]2 [C,=A,] (F,2 _A,) || [E,G,]2 [E,G,] [E,^F,]2 [E,G,] | [E,A,]2 [E,G,] [E,B,]3 | %10
w: ~ ~ ~ *|~ ~ ~ ~|~ ~ ~|
 [E,B,]2 [E,B,] [E,=A,]2 [E,B,] | [E,C]2 [E,B,] [E,G,]3 | B,2 B,, D,2 F, | B,2 D D3 | %14
w: ~ ~ ~ ~|~ ~ ~|~ Gos- pel call,|room for~all, ~|
 [B,,D]2 [B,,D] [B,,D]2 [B,,B,] | B,2 C [E,B,]3 | [E,E]2 [E,E] [E,E]2 [E,E] | %17
w: ~ ~ ~ ~|~ ~ ~|* ~ ~ ~|
 [E,E]2 [E,E] [E,B,]3 | [E,B,]2 [E,B,] [E,=A,]2 [E,B,] | [E,C]2 [E,B,] [E,G,]3 | B,2 B,, D,2 F, | %21
w: ~ ~ ~|~ Gos- pel call,|~ ~ ~|~ Room for~all. *|
 B,2 D D3 | [B,D]2 [B,D] [B,D]2 [B,D] | B,2 C [E,B,]3 |] %24
w: |||
V:4
 x6 | x6 | x6 | x6 | C2 C x3 | x6 | x6 | x3 B,,3 || x6 | x6 | x6 | x6 | B,2 B,, D,2 F, | B,3 D3 | %14
w: ||||~ ~|||~|||||~ ~ ~ Yes,|~ ~|
 x6 | E,3- x3 | x6 | x6 | x6 | x6 | B,2 B,, D,2 F, | B,3 D3 | x6 | E,3- x3 |] %24
w: |~|||||||||

